;; -------------------------------------------------------
;; 8 tooth gear, 3mm milling
;; Bob Bushman
;; -------------------------------------------------------
;; Setup
;; Mount a 3mm 2 flute AlTiN carbide mill
;; set D83 to 3.1mm in tool table
;; set D73 to 3mm in tool table
;; set mill to 3000 RPM
;; zero Z to 3mm above bottom of metal
;; zero X, Y to center of gear
;; -------------------------------------------------------
G90 ; absolute positioning
G21 ; metric units
F10 ; safe default feed speed if not specified
G0 Z10
G0 X0 Y0

;; center bore to 2.3mm depth, 5.05mm diameter
G0 Z1
F30
G1 Z-2.3mm
G1 X0.3 Y0
G3 X0.3 Y0 I-0.3 J0
G1 X0.6 Y0
G3 X0.6 Y0 I-0.6 J0
G1 X0.9 Y0
G3 X0.9 Y0 I-0.9 J0
G1 X1.025 Y0
G3 X1.025 Y0 I-1.025 J0
G1 X0 Y0
G0 Z10
F10

M00

G65 "bob-8z-003-sub-mill-keep-tabs-polar.txt" D83 Z-3
M00
G65 "bob-8z-003-sub-mill-keep-tabs-polar.txt" D73 Z-3
M00
G65 "bob-8z-003-sub-mill-cut-tabs-polar.txt" D83 Z-2.5
M00
G65 "bob-8z-003-sub-mill-cut-tabs-polar.txt" D73 Z-2.5
M00
G65 "bob-8z-003-sub-mill-cut-tabs-polar.txt" D73 Z-2.8
M00
G65 "bob-8z-003-sub-mill-cut-tabs-polar.txt" D73 Z-3
